svg/300/sharp/event_repeat.svg

<svg xmlns="http://www.w3.org/2000/svg" width="48" height="48" viewBox="0 -960 960 960"><path d="M140.001-100.001v-694.613H271.54v-70h50.384v70h317.691v-70h49.229v70h131.155v335.383h-45.384v-95.768h-589.23v409.614h317.846v45.384h-363.23ZM760-6.154q-68.384 0-120.384-42.038-52-42.039-67.538-105.654h49.691q14.538 44.385 51.851 72.193Q710.932-53.846 760-53.846q60.55 0 103.352-42.802Q906.154-139.45 906.154-200q0-60.55-42.802-103.352Q820.55-346.154 760-346.154q-32.846 0-62.078 14.154-29.231 14.154-50.923 38.154h66.847v47.692H566.154v-147.692h47.692v65.462q27.769-29.461 65.692-47.462 37.923-18 80.462-18 80.446 0 137.146 56.7 56.7 56.7 56.7 137.146 0 80.446-56.7 137.146-56.7 56.7-137.146 56.7ZM185.385-600.382h589.23V-749.23h-589.23v148.848Zm0 0V-749.23v148.848Z"/></svg>

<svg xmlns="http://www.w3.org/2000/svg" width="48" height="48" viewBox="0 -960 960 960"><path d="M140-100v-694.61h131.54v-70h50.38v70h317.69v-70h49.23v70H820v335.38h-45.39V-555H185.39v409.61h317.84V-100H140ZM760-6.15q-68.38 0-120.38-42.04t-67.54-105.66h49.69q14.54 44.39 51.85 72.2 37.31 27.8 86.38 27.8 60.55 0 103.35-42.8T906.15-200q0-60.55-42.8-103.35T760-346.15q-32.85 0-62.08 14.15-29.23 14.15-50.92 38.15h66.85v47.7h-147.7v-147.7h47.7v65.47q27.76-29.47 65.69-47.47 37.92-18 80.46-18 80.45 0 137.15 56.7T953.85-200q0 80.45-56.7 137.15T760-6.15ZM185.39-600.38h589.22v-148.85H185.39v148.85Zm0 0v-148.85 148.85Z"/></svg>
